_inc/images/systems/logos/c64.svg

<svg viewBox="0 0 264 38" xmlns="http://www.w3.org/2000/svg" xmlns:bx="https://boxy-svg.com">
    <path d="M24.835 10.837h15.891l-6.957 7.231h-8.934v-7.231Z" style="fill-opacity:1;fill:#fff" bx:origin="-1.563 -1.499"/>
    <path d="M24.82 27.165h15.891l-6.957-7.231H24.82v7.231Z" style="fill-opacity:1;fill:#fff" bx:origin="-1.562 -2.757"/>
    <path d="M24.49.746v9.11c-1.625-1.002-3.431-1.497-5.421-1.497-1.899 0-3.662.474-5.286 1.431a10.32 10.32 0 0 0-3.838 3.893 10.49 10.49 0 0 0-1.402 5.276c0 1.897.469 3.648 1.402 5.266a10.38 10.38 0 0 0 3.85 3.841 10.362 10.362 0 0 0 5.274 1.42c1.972 0 3.78-.479 5.42-1.43v9.151a18.74 18.74 0 0 1-5.42.793c-3.4 0-6.574-.854-9.513-2.564a19.124 19.124 0 0 1-6.984-6.964C.857 25.544 0 22.371 0 18.96c0-2.527.496-4.962 1.491-7.301a19.032 19.032 0 0 1 4.148-6.132 19.204 19.204 0 0 1 6.079-4.073C14.006.485 16.455 0 19.069 0c1.805 0 3.612.254 5.421.746" style="fill-opacity:1;fill:#fff" bx:origin="0 0"/>
    <path d="M66.789 20.363c-.08 2.26-.363 3.232-1.251 4.118-1.291 1.309-2.948 1.654-8.281 1.654-4.152 0-5.899-.287-7.243-1.258-1.319-.912-1.748-2.371-1.748-5.94 0-3.253.401-4.683 1.602-5.65 1.288-1.056 3.066-1.368 7.645-1.368 4.493 0 6.47.34 7.763 1.396 1.09.855 1.453 1.915 1.534 4.452h-5.146c-.172-1.538-1.171-2.055-4.151-2.055-3.522 0-4.179.541-4.179 3.367 0 1.772.287 2.456 1.204 2.829.6.258 1.688.399 3.032.399 2.978 0 3.837-.399 4.066-1.943l5.153-.001Z" style="fill-opacity:1;fill:#fff" bx:origin="-2.603 -0.838"/>
    <path d="M85.281 13.172c1.373.998 1.756 2.224 1.756 5.622 0 3.712-.344 4.971-1.575 5.996-1.291 1.058-2.987 1.346-7.993 1.346-5.067 0-6.763-.288-8.035-1.346-1.272-1.025-1.595-2.283-1.595-6.197 0-3.165.404-4.45 1.756-5.421 1.252-.913 3.229-1.229 7.853-1.229 4.623 0 6.581.315 7.833 1.229m-12.375 5.967c0 1.797.242 2.396 1.15 2.769.626.284 1.776.427 3.412.427 3.836 0 4.502-.487 4.502-3.343 0-1.826-.304-2.481-1.232-2.85-.645-.257-1.838-.402-3.27-.402-3.875 0-4.562.513-4.562 3.399" style="fill-opacity:1;fill:#fff" bx:origin="-3.534 -0.841"/>
    <path d="M92.83 12.288v2.025h.264c.746-1.624 2.463-2.37 5.47-2.37 3.271 0 5.067.829 6.158 2.829.868-2.028 2.523-2.829 5.834-2.829 2.805 0 4.481.516 5.651 1.741 1.171 1.199 1.434 2.313 1.434 5.791v6.315h-5.068v-6.315c-.04-2.25-.101-2.505-.586-2.993-.504-.513-1.372-.742-2.845-.742-1.534 0-2.483.257-3.008.858-.586.627-.747 1.426-.747 3.622v5.57h-5.068v-6.315c0-2.107-.06-2.48-.543-2.993-.465-.513-1.353-.742-2.808-.742-1.534 0-2.523.257-3.087.827-.585.571-.747 1.428-.747 3.653v5.57h-5.067V12.288h4.763Z" style="fill-opacity:1;fill:#fff" bx:origin="-2.978 -0.863"/>
    <path d="M123.596 12.288v2.025h.242c.747-1.624 2.462-2.37 5.47-2.37 3.272 0 5.068.829 6.159 2.829.868-2.028 2.523-2.829 5.853-2.829 2.806 0 4.461.516 5.632 1.741 1.17 1.199 1.433 2.313 1.433 5.791v6.315h-5.066v-6.315c-.02-2.25-.082-2.505-.565-2.993-.526-.513-1.374-.742-2.868-.742-1.513 0-2.462.257-3.008.858-.584.627-.745 1.426-.745 3.622v5.57h-5.068v-6.315c0-2.107-.061-2.48-.545-2.993-.465-.513-1.352-.742-2.806-.742-1.514 0-2.524.257-3.089.827-.585.571-.746 1.428-.746 3.653v5.57h-5.067V12.288h4.784Z" style="fill-opacity:1;fill:#fff" bx:origin="-4.018 -0.863"/>
    <path d="M166.919 13.172c1.371.998 1.735 2.224 1.735 5.622 0 3.712-.343 4.971-1.573 5.996-1.293 1.058-2.968 1.346-7.995 1.346-5.067 0-6.742-.288-8.034-1.346-1.252-1.025-1.576-2.283-1.576-6.197 0-3.165.404-4.45 1.757-5.421 1.251-.913 3.23-1.229 7.832-1.229 4.644 0 6.582.315 7.854 1.229m-12.375 5.967c0 1.797.221 2.396 1.149 2.769.627.284 1.777.427 3.392.427 3.855 0 4.501-.487 4.501-3.343 0-1.826-.282-2.481-1.231-2.85-.626-.257-1.837-.402-3.27-.402-3.856 0-4.541.513-4.541 3.399" style="fill-opacity:1;fill:#fff" bx:origin="-7.795 -0.841"/>
    <path d="M188.862 25.79h-4.765v-1.771h-.263c-.968 1.628-2.32 2.116-5.994 2.116-3.656 0-5.41-.373-6.582-1.428-1.112-1.029-1.453-2.402-1.453-5.77 0-3.427.544-5.051 1.977-5.991 1.232-.803 2.625-1.027 6.117-1.027 3.552 0 4.723.455 5.693 2.169h.202V6.749h5.066V25.79h.002Zm-13.991-6.909c0 2.966.565 3.424 4.382 3.424 1.857 0 3.229-.227 3.815-.627.565-.374.766-1.09.766-2.658 0-2.791-.666-3.308-4.279-3.308-3.996 0-4.684.458-4.684 3.169" style="fill-opacity:1;fill:#fff" bx:origin="-8.91 -0.348"/>
    <path d="M207.212 13.172c1.372.998 1.756 2.224 1.756 5.622 0 3.712-.343 4.971-1.575 5.996-1.293 1.058-2.987 1.346-7.994 1.346-5.067 0-6.743-.288-8.036-1.346-1.27-1.025-1.573-2.283-1.573-6.197 0-3.165.404-4.45 1.736-5.421 1.272-.913 3.251-1.229 7.854-1.229 4.643 0 6.58.315 7.832 1.229m-12.356 5.967c0 1.797.223 2.396 1.152 2.769.605.284 1.755.427 3.391.427 3.834 0 4.501-.487 4.501-3.343 0-1.826-.283-2.481-1.231-2.85-.626-.257-1.837-.402-3.27-.402-3.856 0-4.543.513-4.543 3.399" style="fill-opacity:1;fill:#fff" bx:origin="-9.897 -0.841"/>
    <path d="M214.782 12.288v2.025h.263c.928-1.715 2.362-2.37 5.208-2.37 4.077 0 5.451 1.372 5.451 5.425v.913h-4.765c0-2.001-.585-2.541-2.664-2.541-1.151 0-2.1.344-2.585.971-.485.657-.625 1.399-.625 3.483v5.596h-5.068V12.288h4.785Z" style="fill-opacity:1;fill:#fff" bx:origin="-13.37 -0.863"/>
    <path d="M244.759 21.479c-.383 3.741-2.241 4.656-9.488 4.656-3.916 0-5.774-.345-7.006-1.258-1.332-.998-1.715-2.345-1.715-5.798 0-3.625.382-4.967 1.817-5.963 1.332-.913 3.008-1.197 7.428-1.197 4.563 0 6.177.284 7.409 1.28 1.191.999 1.657 2.513 1.657 5.567 0 .171 0 .797-.021 1.367h-13.244c0 1.373.163 1.827.647 2.202.545.4 1.595.573 3.432.573 3.229 0 3.834-.229 4.037-1.428l5.047-.001Zm-4.985-4.111c-.042-1.057-.101-1.312-.406-1.628-.464-.487-1.492-.685-3.49-.685-3.412 0-4.219.428-4.28 2.313h8.176Z" style="fill-opacity:1;fill:#fff" bx:origin="-12.373 -0.838"/>
    <path d="M253.419 23.24c-.517 0-.992-.113-1.424-.338a2.466 2.466 0 0 1-1.016-.968c-.248-.421-.372-.912-.372-1.473 0-.396.062-.785.184-1.167.122-.385.381-.939.775-1.66.397-.722 1.03-1.795 1.898-3.222l1.098.639a51.513 51.513 0 0 0-1.861 2.982.639.639 0 0 1-.082.113 1.34 1.34 0 0 1 .49-.272c.207-.068.444-.102.71-.102.503 0 .95.119 1.339.358.386.238.684.557.893.956.21.399.315.83.315 1.294 0 .593-.126 1.107-.376 1.537a2.43 2.43 0 0 1-1.045.985c-.446.225-.955.338-1.526.338Zm.082-1.116c.478 0 .857-.151 1.134-.455.278-.304.417-.696.417-1.175 0-.502-.143-.898-.429-1.189-.286-.293-.649-.438-1.09-.438-.486 0-.877.147-1.171.442-.294.297-.441.699-.441 1.209 0 .464.151.847.453 1.151.3.304.675.455 1.127.455Zm7.997.944v-2.095h-3.84l2.412-6.561 1.188.444-1.817 4.922h2.057l.07-1.904h1.265v1.904H264v1.195h-1.167v2.095h-1.335Z" style="fill:#fff;white-space:pre"/>
</svg>

<?xml version="1.0" encoding="utf-8"?>
<svg version="1.1" viewBox="0 0 264 38" xmlns="http://www.w3.org/2000/svg" xmlns:bx="https://boxy-svg.com">
  <path id="path1922" d="M 24.835 10.837 L 40.726 10.837 L 33.769 18.068 L 24.835 18.068 L 24.835 10.837 Z" style="fill-opacity: 1; fill: rgb(255, 255, 255);" bx:origin="-1.563 -1.499"/>
  <path id="path3805" d="M 24.82 27.165 L 40.711 27.165 L 33.754 19.934 L 24.82 19.934 L 24.82 27.165 Z" style="fill-opacity: 1; fill: rgb(255, 255, 255);" bx:origin="-1.562 -2.757"/>
  <path id="path4382" d="M 24.49 0.746 L 24.49 9.856 C 22.865 8.854 21.059 8.359 19.069 8.359 C 17.17 8.359 15.407 8.833 13.783 9.79 C 12.157 10.738 10.879 12.037 9.945 13.683 C 9.011 15.32 8.543 17.085 8.543 18.959 C 8.543 20.856 9.012 22.607 9.945 24.225 C 10.879 25.839 12.162 27.12 13.795 28.066 C 15.426 29.009 17.183 29.486 19.069 29.486 C 21.041 29.486 22.849 29.007 24.489 28.056 L 24.489 37.207 C 22.728 37.736 20.921 38 19.069 38 C 15.669 38 12.495 37.146 9.556 35.436 C 6.619 33.726 4.288 31.4 2.572 28.472 C 0.857 25.544 0 22.371 0 18.96 C 0 16.433 0.496 13.998 1.491 11.659 C 2.487 9.323 3.868 7.279 5.639 5.527 C 7.406 3.777 9.436 2.42 11.718 1.454 C 14.006 0.485 16.455 0 19.069 0 C 20.874 0 22.681 0.254 24.49 0.746" style="fill-opacity: 1; fill: rgb(255, 255, 255);" bx:origin="0 0"/>
  <path id="path4340" d="M 66.789 20.363 C 66.709 22.623 66.426 23.595 65.538 24.481 C 64.247 25.79 62.59 26.135 57.257 26.135 C 53.105 26.135 51.358 25.848 50.014 24.877 C 48.695 23.965 48.266 22.506 48.266 18.937 C 48.266 15.684 48.667 14.254 49.868 13.287 C 51.156 12.231 52.934 11.919 57.513 11.919 C 62.006 11.919 63.983 12.259 65.276 13.315 C 66.366 14.17 66.729 15.23 66.81 17.767 L 61.664 17.767 C 61.492 16.229 60.493 15.712 57.513 15.712 C 53.991 15.712 53.334 16.253 53.334 19.079 C 53.334 20.851 53.621 21.535 54.538 21.908 C 55.138 22.166 56.226 22.307 57.57 22.307 C 60.548 22.307 61.407 21.908 61.636 20.364 L 66.789 20.363 L 66.789 20.363 Z" style="fill-opacity: 1; fill: rgb(255, 255, 255);" bx:origin="-2.603 -0.838"/>
  <path id="path4342" d="M 85.281 13.172 C 86.654 14.17 87.037 15.396 87.037 18.794 C 87.037 22.506 86.693 23.765 85.462 24.79 C 84.171 25.848 82.475 26.136 77.469 26.136 C 72.402 26.136 70.706 25.848 69.434 24.79 C 68.162 23.765 67.839 22.507 67.839 18.593 C 67.839 15.428 68.243 14.143 69.595 13.172 C 70.847 12.259 72.824 11.943 77.448 11.943 C 82.071 11.943 84.029 12.258 85.281 13.172 M 72.906 19.139 C 72.906 20.936 73.148 21.535 74.056 21.908 C 74.682 22.192 75.832 22.335 77.468 22.335 C 81.304 22.335 81.97 21.848 81.97 18.992 C 81.97 17.166 81.666 16.511 80.738 16.142 C 80.093 15.885 78.9 15.74 77.468 15.74 C 73.593 15.74 72.906 16.253 72.906 19.139" style="fill-opacity: 1; fill: rgb(255, 255, 255);" bx:origin="-3.534 -0.841"/>
  <path id="path4344" d="M 92.83 12.288 L 92.83 14.313 L 93.094 14.313 C 93.84 12.689 95.557 11.943 98.564 11.943 C 101.835 11.943 103.631 12.772 104.722 14.772 C 105.59 12.744 107.245 11.943 110.556 11.943 C 113.361 11.943 115.037 12.459 116.207 13.684 C 117.378 14.883 117.641 15.997 117.641 19.475 L 117.641 25.79 L 112.573 25.79 L 112.573 19.475 C 112.533 17.225 112.472 16.97 111.987 16.482 C 111.483 15.969 110.615 15.74 109.142 15.74 C 107.608 15.74 106.659 15.997 106.134 16.598 C 105.548 17.225 105.387 18.024 105.387 20.22 L 105.387 25.79 L 100.319 25.79 L 100.319 19.475 C 100.319 17.368 100.259 16.995 99.776 16.482 C 99.311 15.969 98.423 15.74 96.968 15.74 C 95.434 15.74 94.445 15.997 93.881 16.567 C 93.296 17.138 93.134 17.995 93.134 20.22 L 93.134 25.79 L 88.067 25.79 L 88.067 12.288 L 92.83 12.288 Z" style="fill-opacity: 1; fill: rgb(255, 255, 255);" bx:origin="-2.978 -0.863"/>
  <path id="path4346" d="M 123.596 12.288 L 123.596 14.313 L 123.838 14.313 C 124.585 12.689 126.3 11.943 129.308 11.943 C 132.58 11.943 134.376 12.772 135.467 14.772 C 136.335 12.744 137.99 11.943 141.32 11.943 C 144.126 11.943 145.781 12.459 146.952 13.684 C 148.122 14.883 148.385 15.997 148.385 19.475 L 148.385 25.79 L 143.319 25.79 L 143.319 19.475 C 143.299 17.225 143.237 16.97 142.754 16.482 C 142.228 15.969 141.38 15.74 139.886 15.74 C 138.373 15.74 137.424 15.997 136.878 16.598 C 136.294 17.225 136.133 18.024 136.133 20.22 L 136.133 25.79 L 131.065 25.79 L 131.065 19.475 C 131.065 17.368 131.004 16.995 130.52 16.482 C 130.055 15.969 129.168 15.74 127.714 15.74 C 126.2 15.74 125.19 15.997 124.625 16.567 C 124.04 17.138 123.879 17.995 123.879 20.22 L 123.879 25.79 L 118.812 25.79 L 118.812 12.288 L 123.596 12.288 Z" style="fill-opacity: 1; fill: rgb(255, 255, 255);" bx:origin="-4.018 -0.863"/>
  <path id="path4348" d="M 166.919 13.172 C 168.29 14.17 168.654 15.396 168.654 18.794 C 168.654 22.506 168.311 23.765 167.081 24.79 C 165.788 25.848 164.113 26.136 159.086 26.136 C 154.019 26.136 152.344 25.848 151.052 24.79 C 149.8 23.765 149.476 22.507 149.476 18.593 C 149.476 15.428 149.88 14.143 151.233 13.172 C 152.484 12.259 154.463 11.943 159.065 11.943 C 163.709 11.943 165.647 12.258 166.919 13.172 M 154.544 19.139 C 154.544 20.936 154.765 21.535 155.693 21.908 C 156.32 22.192 157.47 22.335 159.085 22.335 C 162.94 22.335 163.586 21.848 163.586 18.992 C 163.586 17.166 163.304 16.511 162.355 16.142 C 161.729 15.885 160.518 15.74 159.085 15.74 C 155.229 15.74 154.544 16.253 154.544 19.139" style="fill-opacity: 1; fill: rgb(255, 255, 255);" bx:origin="-7.795 -0.841"/>
  <path id="path4350" d="M 188.862 25.79 L 184.097 25.79 L 184.097 24.019 L 183.834 24.019 C 182.866 25.647 181.514 26.135 177.84 26.135 C 174.184 26.135 172.43 25.762 171.258 24.707 C 170.146 23.678 169.805 22.305 169.805 18.937 C 169.805 15.51 170.349 13.886 171.782 12.946 C 173.014 12.143 174.407 11.919 177.899 11.919 C 181.451 11.919 182.622 12.374 183.592 14.088 L 183.794 14.088 L 183.794 6.749 L 188.86 6.749 L 188.86 25.79 L 188.862 25.79 Z M 174.871 18.881 C 174.871 21.847 175.436 22.305 179.253 22.305 C 181.11 22.305 182.482 22.078 183.068 21.678 C 183.633 21.304 183.834 20.588 183.834 19.02 C 183.834 16.229 183.168 15.712 179.555 15.712 C 175.559 15.712 174.871 16.17 174.871 18.881" style="fill-opacity: 1; fill: rgb(255, 255, 255);" bx:origin="-8.91 -0.348"/>
  <path id="path4352" d="M 207.212 13.172 C 208.584 14.17 208.968 15.396 208.968 18.794 C 208.968 22.506 208.625 23.765 207.393 24.79 C 206.1 25.848 204.406 26.136 199.399 26.136 C 194.332 26.136 192.656 25.848 191.363 24.79 C 190.093 23.765 189.79 22.507 189.79 18.593 C 189.79 15.428 190.194 14.143 191.526 13.172 C 192.798 12.259 194.777 11.943 199.38 11.943 C 204.023 11.943 205.96 12.258 207.212 13.172 M 194.856 19.139 C 194.856 20.936 195.079 21.535 196.008 21.908 C 196.613 22.192 197.763 22.335 199.399 22.335 C 203.233 22.335 203.9 21.848 203.9 18.992 C 203.9 17.166 203.617 16.511 202.669 16.142 C 202.043 15.885 200.832 15.74 199.399 15.74 C 195.543 15.74 194.856 16.253 194.856 19.139" style="fill-opacity: 1; fill: rgb(255, 255, 255);" bx:origin="-9.897 -0.841"/>
  <path id="path4354" d="M 214.782 12.288 L 214.782 14.313 L 215.045 14.313 C 215.973 12.598 217.407 11.943 220.253 11.943 C 224.33 11.943 225.704 13.315 225.704 17.368 L 225.704 18.281 L 220.939 18.281 C 220.939 16.28 220.354 15.74 218.275 15.74 C 217.124 15.74 216.175 16.084 215.69 16.711 C 215.205 17.368 215.065 18.11 215.065 20.194 L 215.065 25.79 L 209.997 25.79 L 209.997 12.288 L 214.782 12.288 Z" style="fill-opacity: 1; fill: rgb(255, 255, 255);" bx:origin="-13.37 -0.863"/>
  <path id="path4356" d="M 244.759 21.479 C 244.376 25.22 242.518 26.135 235.271 26.135 C 231.355 26.135 229.497 25.79 228.265 24.877 C 226.933 23.879 226.55 22.532 226.55 19.079 C 226.55 15.454 226.932 14.112 228.367 13.116 C 229.699 12.203 231.375 11.919 235.795 11.919 C 240.358 11.919 241.972 12.203 243.204 13.199 C 244.395 14.198 244.861 15.712 244.861 18.766 C 244.861 18.937 244.861 19.563 244.84 20.133 L 231.596 20.133 C 231.596 21.506 231.759 21.96 232.243 22.335 C 232.788 22.735 233.838 22.908 235.675 22.908 C 238.904 22.908 239.509 22.679 239.712 21.48 L 244.759 21.479 L 244.759 21.479 Z M 239.774 17.368 C 239.732 16.311 239.673 16.056 239.368 15.74 C 238.904 15.253 237.876 15.055 235.878 15.055 C 232.466 15.055 231.659 15.483 231.598 17.368 L 239.774 17.368 Z" style="fill-opacity: 1; fill: rgb(255, 255, 255);" bx:origin="-12.373 -0.838"/>
  <path d="M 253.419 23.24 C 252.902 23.24 252.427 23.127 251.995 22.902 C 251.565 22.68 251.226 22.357 250.979 21.934 C 250.731 21.513 250.607 21.022 250.607 20.461 C 250.607 20.065 250.669 19.676 250.791 19.294 C 250.913 18.909 251.172 18.355 251.566 17.634 C 251.963 16.912 252.596 15.839 253.464 14.412 L 254.562 15.051 C 253.816 16.173 253.226 17.114 252.791 17.874 C 252.761 17.928 252.731 17.981 252.701 18.033 C 252.668 18.086 252.641 18.125 252.619 18.146 C 252.742 18.033 252.905 17.942 253.109 17.874 C 253.316 17.806 253.553 17.772 253.819 17.772 C 254.322 17.772 254.769 17.891 255.158 18.13 C 255.544 18.368 255.842 18.687 256.051 19.086 C 256.261 19.485 256.366 19.916 256.366 20.38 C 256.366 20.973 256.24 21.487 255.99 21.917 C 255.74 22.352 255.391 22.68 254.945 22.902 C 254.499 23.127 253.99 23.24 253.419 23.24 Z M 253.501 22.124 C 253.979 22.124 254.358 21.973 254.635 21.669 C 254.913 21.365 255.052 20.973 255.052 20.494 C 255.052 19.992 254.909 19.596 254.623 19.305 C 254.337 19.012 253.974 18.867 253.533 18.867 C 253.047 18.867 252.656 19.014 252.362 19.309 C 252.068 19.606 251.921 20.008 251.921 20.518 C 251.921 20.982 252.072 21.365 252.374 21.669 C 252.674 21.973 253.049 22.124 253.501 22.124 Z M 261.498 23.068 L 261.498 20.973 L 257.658 20.973 L 260.07 14.412 L 261.258 14.856 L 259.441 19.778 L 261.498 19.778 L 261.568 17.874 L 262.833 17.874 L 262.833 19.778 L 264 19.778 L 264 20.973 L 262.833 20.973 L 262.833 23.068 L 261.498 23.068 Z" style="fill: rgb(255, 255, 255); white-space: pre;"/>
</svg>
